X:733
T:Tea and Sympathy
C:Jonathan Jensen, 2002
N:A Waltz for Susan Saint Germain (formerly Susan Murrow)
S:Colin Hume's website,  colinhume.com  - chords can also be printed below the stave.
%%MIDI beat 100 95 80
Q:1/4=120
M:3/4
L:1/8
%%MIDI program 50
K:A
P:A
|: E Ac | "A"f3 e cA | "A/C#"f3 e cA | "Bm"e3 d cd | "Bm/D"F2G2A2 |\
"E7"c3 B GE | "E"c3 B GE | "D"F3 E A,B, | "A"CE AB cd |
"A"f3 e cA | "A/C#"f3 e cA | "Bm"e3 d cd | "Bm/D"F6 |\
"A/C#"EF GA Bc | "D"FG AB cd | "A/E"c3 c "E7"B2 | "A"A3 :|
P:B
|: z A2 | "E7"G3 G "E7/D"F2 | "A/C#"E2 A3F | "E7/G#"E2 B3G | "A"E2c2A2 |\
"E7"G3 G "E7/D"F2 | "A/C#"E2e2c2 | "F#m7"A3 G "B7"F2 | "E"B4c2 |
"E7/D"B3 B f2 | "A/C#"e2c2A2 | "C#7/F"G3 Gd2 | "F#m"c2A2F2 |\
"A/C#"EF GA Bc | "D"FG AB cd | "A/E"c3 c "E7"B2 | "A"A3 :|

